X:470
T: HERR LIEUTNANT
N: E1725
O: Europa, Mitteleuropa, Deutschland
R: Scherz - Lied, Studenten - Lied
M: 2/4
L: 1/16
K: F
C2 | F2F4G2 | A2A4
c2 | c2BAB2c2 | A6
G2 | d2d2d2d2 | d2c4
FF | B2B2B2B2 | B2A4

@@@ Tune index: 5154
